X: 149
T: Bold O'Donahue
M:6/8
R:jig
L:1/8
Z:added by Alf warnock alf0@rogers.com - www.alfwarnock.info/alfs
K:D
A2d|"D"f2f f2e|f2f f2e|"G"d2c d2B|G2G G2B|
"A7"A2B A2c|e2e e2d|e2d c2B|"D"A3 A2d|
f2f f2e|f2f f2e|"G"d2c d2B|G2G G2G|
"A7"A2A A2c|e2e e2f|g2e c2A|"D"d6|]

